X: 4172
T: The DUBLIN GIRLS
%R: reel
B: James Kerr "Merry Melodies" v.4 p.20 #172
Z: 2016 John Chambers <jc:trillian.mit.edu>
M: C|
L: 1/8
K: D
|:\
A2 (3(FED) AFEE | A2 (3(FED) BEEB |\
A2 (3(FED) AFFE | egfg edBd ::\
A2(FA) AddB | A2(fd) edBd |
A2F2 AddB | egfg edBd ::\
f2fd e2ed | f2fd (ed)Bd |\
f2fd e2ed | egfg edBd :|

%%sep 1 1 500
%%sep 1 1 500

